svg/fluentui-system-icons/ic_fluent_comment_add_28_regular.svg

<svg width="28" height="28" viewBox="0 0 28 28" fill="none" xmlns="http://www.w3.org/2000/svg">
<path d="M27 7.5C27 11.0899 24.0899 14 20.5 14C16.9101 14 14 11.0899 14 7.5C14 3.91015 16.9101 1 20.5 1C24.0899 1 27 3.91015 27 7.5ZM21 3.5C21 3.22386 20.7761 3 20.5 3C20.2239 3 20 3.22386 20 3.5V7H16.5C16.2239 7 16 7.22386 16 7.5C16 7.77614 16.2239 8 16.5 8H20V11.5C20 11.7761 20.2239 12 20.5 12C20.7761 12 21 11.7761 21 11.5V8H24.5C24.7761 8 25 7.77614 25 7.5C25 7.22386 24.7761 7 24.5 7H21V3.5ZM24.5 17.25V13.8454C25.053 13.4961 25.5572 13.0765 26 12.5991V17.25C26 19.3211 24.3211 21 22.25 21H16.309L9.77388 25.7147C8.61646 26.5497 7 25.7227 7 24.2955V21H5.75C3.67893 21 2 19.3211 2 17.25V6.75C2 4.67893 3.67893 3 5.75 3H14.4995C14.1527 3.46159 13.858 3.9645 13.6241 4.5H5.75C4.50736 4.5 3.5 5.50736 3.5 6.75V17.25C3.5 18.4926 4.50736 19.5 5.75 19.5H8.5V24.2955C8.5 24.4994 8.73092 24.6175 8.89627 24.4982L15.8244 19.5H22.25C23.4926 19.5 24.5 18.4926 24.5 17.25Z" fill="#212121"/>
</svg>

<svg xmlns="http://www.w3.org/2000/svg" width="28" height="28"><path d="M27 7.5a6.5 6.5 0 1 1-13 0 6.5 6.5 0 0 1 13 0Zm-6-4a.5.5 0 0 0-1 0V7h-3.5a.5.5 0 0 0 0 1H20v3.5a.5.5 0 0 0 1 0V8h3.5a.5.5 0 0 0 0-1H21V3.5Zm3.5 13.75v-3.405A7.535 7.535 0 0 0 26 12.6v4.651A3.75 3.75 0 0 1 22.25 21h-5.941l-6.535 4.715C8.616 26.55 7 25.723 7 24.295V21H5.75A3.75 3.75 0 0 1 2 17.25V6.75A3.75 3.75 0 0 1 5.75 3h8.75a7.486 7.486 0 0 0-.876 1.5H5.75A2.25 2.25 0 0 0 3.5 6.75v10.5a2.25 2.25 0 0 0 2.25 2.25H8.5v4.796c0 .203.23.322.396.202l6.928-4.998h6.426a2.25 2.25 0 0 0 2.25-2.25Z"/></svg>
